X: 10142
M: 2/4
L: 1/16
K: G
g2 |\
d2B2 B2AG | B2B2B2g2 | d2B2B2AG | A2A2A2GA |\
|: Bc |\
d2B2g2B2 | d2d2d2e2 | ({e}d2cB) ({a}g2fg) | a2A2A2GA |\


